!!!OTL: 665. Nach Hause.
!!!COM: Fr. Brueckner
!!!ODT: 1837
!!!ARE: Europa, Mitteleuropa, Deutschland
!!!SCT: B0665
!!!TXL: @@DE
!!!YEM: Copyright 1995, estate of Helmut Schaffrath.
**kern	**text
*ICvox	*
*Ivox	*
*clefG2	*
*M4/4	*
*met(c)	*
*k[f#c#]	*
*D:	*
!LO:TX:a:t=Mäßig lansam.	!
{4f#	Wenn
=1	=1
4.f#	ich
8e	den
4d	Wand-
4f#	-rer
=2	=2
4b	fra-
4a	-ge:
4r}	.
{4a	'Wo
=3	=3
2a	kommſt
(4.cc#	du
8dd)	.
=4	=4
2.ee;}	her?'
{4a	Von
=5	=5
2a	Hau-
4f#	-ſe,
4dd	von
=6	=6
2dd	Hau-
4b}	-ſe,
{4b	"ſpricht
=7	=7
4.a	er
8a	und
4b	ſeuf-
4a	-ʒet
=8	=8
2.f#}	ſchwer:
{4a	"von
=9	=9
2a	Hau-
4f#	-ſe,
4dd	von
=10	=10
2ff#	Hau-
4dd}	-ſe,"
{4b	ſpricht
=11	=11
4.a	er
8a	und
8cc#L	ſeuf-
8bJ	.
8aL	-ʒet
8c#J	.
=12	=12
2d	ſchwer.
4r}	.
==	==
!!!AGN: Wander -, Moral - Lied, Vergaenglichkeit
!!!GTL: Didaktische Lieder: Betrachtungen, Vergleiche und Moralisationen
!!!ONB: ESAC (Essen Associative Code) Database: BOEHME
!!!AMT: simple quadruple
!!!AIN: vox
!!!EED: Helmut Schaffrath
!!!EEV: 1.0
!!Mel. 1837 v. Fr. Brueckner in Erfurt.
!!@@COMMENT:"Verfaſſer des Textes unbekannt. Genannt wird A. Lenʒ? Die Melodie, welche in vielen
!!Sammlungen für Männercher ſeit 1856 als Volksweiſe beʒeichnet und ein Liebling des Männer-
!!chorgeſangs wurde, iſt vom ebemaligen K. Preuß. Militärmunkmeiſter Friedrich Brückner in Erfurt
!!komponirt. Sie erſchien ʒuerſt 1837 ʒu Erfurt als Sologeſang mit Klavierbegleitung Desdur.
!!Der Komponiſt lebte noch 1594 als 83jähr. Greis in Quedlinburg ſ. den Nachweis den Aufſat
!!von Eliſe Polko in der Gartenlaube 1894. Nr. 7."
!!@@END:
!!!URL-scan: https://archive.org/details/BoehmeVtLieder1895/page/n517/mode/2up
!!!ENC: Anna Maria Matuszewska
!!!EEV: 2024/16/07
*-	*-
